svg/furkot/freepik/coffee.svg

<svg viewBox="0 0 512 512" xmlns="http://www.w3.org/2000/svg"><path d="m508.341 265.565c-6.571-9.719-18.207-15.532-31.12-15.532h-62.98c.662-9.493.908-17.353.985-22.996.055-5.361-4.411-9.709-9.785-9.709h-391.001c-5.368 0-9.842 4.338-9.767 9.709.555 41.96 11.331 207.436 145.453 247.735h-125.654c-7.942 0-16.751 6.002-19.624 13.418l-3.922 10.09c-2.887 7.407 1.191 13.417 9.156 13.417h399.699c7.946 0 12.044-6.012 9.161-13.417l-3.944-10.09c-2.883-7.414-11.662-13.418-19.628-13.418h-119.514c45.552-14.271 76.276-44.178 96.947-78.835 86.573-2.447 123.839-62.31 138.366-98.39 4.456-11.063 3.43-22.727-2.828-31.982zm-24.198 21.118c-13.198 32.801-40.471 71.118-95.96 78.865 12.555-29.804 19.334-60.603 22.957-86.376h66.081c3.811 0 6.107 1.386 6.981 2.702.776 1.148.755 2.761-.059 4.809zm-277.915-82.009c2.054 2.361 4.935 3.566 7.8 3.566 2.41 0 4.817-.835 6.746-2.518 4.305-3.726 4.78-10.242 1.038-14.545-.242-.309-27.575-32.605-10.009-54.703 23.422-29.48 9.155-53.55-1.668-62.151-4.437-3.547-10.943-2.816-14.488 1.64-3.503 4.429-2.806 10.868 1.575 14.417 2.503 2.14 14.067 13.574-1.575 33.278-28.197 35.479 9.013 79.173 10.581 81.016zm55.164-184.166c4.381-3.565 5.078-9.994 1.555-14.417-3.546-4.455-10.033-5.187-14.489-1.646-10.805 8.605-25.072 32.677-1.65 62.156 17.567 22.099-9.766 54.406-10.032 54.702-3.718 4.302-3.261 10.819 1.042 14.548 1.948 1.688 4.358 2.517 6.747 2.517 2.883 0 5.764-1.205 7.794-3.566 1.593-1.843 38.786-45.537 10.606-81.04-15.663-19.679-4.086-31.128-1.573-33.254z"/></svg>

<svg xmlns="http://www.w3.org/2000/svg" viewBox="0 0 512 512"><path d="M508.341 265.565C501.77 255.846 490.134 250.033 477.221 250.033H414.241C414.903 240.54 415.149 232.68 415.226 227.037 415.281 221.676 410.815 217.328 405.441 217.328H14.44C9.072 217.328 4.598 221.666 4.673 227.037 5.228 268.997 16.004 434.473 150.126 474.772H24.472C16.53 474.772 7.721 480.774 4.848 488.19L0.926 498.28C-1.961 505.687 2.117 511.697 10.082 511.697H409.781C417.727 511.697 421.825 505.685 418.942 498.28L414.998 488.19C412.115 480.776 403.336 474.772 395.37 474.772H275.856C321.408 460.501 352.132 430.594 372.803 395.937 459.376 393.49 496.642 333.627 511.169 297.547 515.625 286.484 514.599 274.82 508.341 265.565ZM484.143 286.683C470.945 319.484 443.672 357.801 388.183 365.548 400.738 335.744 407.517 304.945 411.14 279.172H477.221C481.032 279.172 483.328 280.558 484.202 281.874 484.978 283.022 484.957 284.635 484.143 286.683ZM206.228 204.674C208.282 207.035 211.163 208.24 214.028 208.24 216.438 208.24 218.845 207.405 220.774 205.722 225.079 201.996 225.554 195.48 221.812 191.177 221.57 190.868 194.237 158.572 211.803 136.474 235.225 106.994 220.958 82.924 210.135 74.323 205.698 70.776 199.192 71.507 195.647 75.963 192.144 80.392 192.841 86.831 197.222 90.38 199.725 92.52 211.289 103.954 195.647 123.658 167.45 159.137 204.66 202.831 206.228 204.674ZM261.392 20.508C265.773 16.943 266.47 10.514 262.947 6.091 259.401 1.636 252.914 0.904 248.458 4.445 237.653 13.05 223.386 37.122 246.808 66.601 264.375 88.7 237.042 121.007 236.776 121.303 233.058 125.605 233.515 132.122 237.818 135.851 239.766 137.539 242.176 138.368 244.565 138.368 247.448 138.368 250.329 137.163 252.359 134.802 253.952 132.959 291.145 89.265 262.965 53.762 247.302 34.083 258.879 22.634 261.392 20.508Z"/></svg>
